X:28
T:Waefu' Heart, The
C:arr. Carlo Minasi
M:C
L:1/8
B:Chappell's One Hundred Scotch Melodies
B:Arranged for the Concertina by Carlo Minasi
Q:"Andante  "1/4=140
Z:Peter Dunk 2012
K:F
!p!F2|(F3G {B}G2 GF)|(F3G {c}B2 AG)|\
(F2 Ac [dB][cA][BG][AF])|([A4F4] [G2E2]) zF|
(F3 E D3 C)|(C2 F>G A2) zd|(c3 d A2 {A/}G2)|[F6]||
c2|(c3 d/e/ f3 e/d/)|(c3 d A2) zd|\
(c3 d cAGF)|([A4F4C4][G2E2C2]) zF|
(F2 [AF][cA] [d3B3] [cA])|([f3A3] [gB] H[f3A3]) (e/d/)|\
(cAfd) (c<A) (G>A )|[F6C6A,6]||

